img/activities/06.svg

<svg width="56" height="64" viewBox="0 0 56 64" fill="none" xmlns="http://www.w3.org/2000/svg">
<g clip-path="url(#clip0_14_4293)">
<path d="M52 0C50 0 36 4 36 22V36C36 40.4125 39.5875 44 44 44H48V60C48 62.2125 49.7875 64 52 64C54.2125 64 56 62.2125 56 60V44V30V4C56 1.7875 54.2125 0 52 0ZM8 2C8 0.975 7.2375 0.125 6.2125 0.0125C5.1875 -0.1 4.275 0.575 4.05 1.5625L0.2625 18.6C0.0875 19.3875 0 20.1875 0 20.9875C0 26.725 4.3875 31.4375 10 31.95V60C10 62.2125 11.7875 64 14 64C16.2125 64 18 62.2125 18 60V31.95C23.6125 31.4375 28 26.725 28 20.9875C28 20.1875 27.9125 19.3875 27.7375 18.6L23.95 1.5625C23.725 0.5625 22.7875 -0.1 21.775 0.0125C20.7625 0.125 20 0.975 20 2V18.775C20 19.45 19.45 20 18.775 20C18.1375 20 17.6125 19.5125 17.55 18.875L15.9875 1.825C15.9 0.7875 15.0375 0 14 0C12.9625 0 12.1 0.7875 12.0125 1.825L10.4625 18.875C10.4 19.5125 9.875 20 9.2375 20C8.5625 20 8.0125 19.45 8.0125 18.775V2H8ZM14.0375 21H14H13.9625L14 20.9125L14.0375 21Z" fill="#D8AE5E"/>
</g>
<defs>
<clipPath id="clip0_14_4293">
<rect width="56" height="64" fill="white"/>
</clipPath>
</defs>
</svg>

<svg xmlns="http://www.w3.org/2000/svg" width="56" height="64" fill="none"><g clip-path="url(#a)"><path fill="#D8AE5E" d="M52 0c-2 0-16 4-16 22v14a8 8 0 0 0 8 8h4v16a4 4 0 1 0 8 0V4a4 4 0 0 0-4-4ZM8 2a2 2 0 0 0-1.8-2A2 2 0 0 0 4 1.6l-3.7 17A11 11 0 0 0 10 31.9V60a4 4 0 1 0 8 0V32a11 11 0 0 0 9.7-13.4L24 1.6A2 2 0 0 0 20 2v16.8a1.2 1.2 0 0 1-2.4 0L16 1.9C15.9.8 15 0 14 0a2 2 0 0 0-2 1.8l-1.5 17c-.1.7-.6 1.2-1.3 1.2-.6 0-1.2-.6-1.2-1.2V2Zm6 19Z"/></g><defs><clipPath id="a"><path fill="#fff" d="M0 0h56v64H0z"/></clipPath></defs></svg>
